X: 42394
T: Wendel's Wedding
R: strathspey
M: 4/4
K: Gmajor
g>f|e2 d<e B2 B<A|G>B A<G E2 g>f|e2 d<e B>A Bc/d/|e6 zd|
e2 d<e B2 B>A|G>B A<G E2 G>A|B<e d<B A<G B>A|G6:|
G>A|B2 A<B e2 de/f/|g>f e<d e2 de/f/|g>f e>d e>d Bc/d/|e6 zd|
e2 d>e B2 B>A|G>B A<G E2 G>A|B<e d<B A<G B>A|G6:|

